static/tokens/Ethereum.svg

<svg width="34" height="34" version="1.1" viewBox="0 0 34 34" xmlns="http://www.w3.org/2000/svg">
 <g transform="translate(1.9672e-6 -.0039787)">
  <path d="m33.492 21.115c-2.2708 9.1082-11.496 14.651-20.606 12.38-9.1051-2.2708-14.648-11.496-12.377-20.604 2.2698-9.1094 11.495-14.653 20.602-12.382 9.1087 2.2708 14.652 11.498 12.381 20.606z" fill="#5276f7"/>
  <path d="m16.753 6-0.1475 0.50131v14.547l0.1475 0.1472 6.7524-3.9914z" fill="#f0f0f0"/>
  <path d="m16.752 6-6.7525 11.204 6.7525 3.9915v-7.0606z" fill="#fff"/>
  <path d="m16.752 22.474-0.0832 0.1014v5.1819l0.0832 0.2427 6.7565-9.5153z" fill="#f0f0f0"/>
  <path d="m16.752 28v-5.5261l-6.7525-3.9894z" fill="#fff"/>
  <path d="m16.752 21.196 6.7524-3.9914-6.7524-3.0692z" fill="#ccc"/>
  <path d="m10 17.204 6.7524 3.9914v-7.0605z" fill="#eee"/>
 </g>
</svg>

<svg width="34" height="35" viewBox="0 0 34 35" fill="none" xmlns="http://www.w3.org/2000/svg">
<path d="M33.4917 21.1151C31.2209 30.2233 21.9952 35.766 12.8859 33.4951C3.78084 31.2243 -1.76232 21.9987 0.509034 12.891C2.77879 3.78165 12.0039 -1.76204 21.1106 0.50878C30.2193 2.7796 35.7625 12.0063 33.4917 21.1151Z" fill="#5276F7"/>
<path d="M16.753 6L16.6055 6.50131V21.0483L16.753 21.1955L23.5054 17.2041L16.753 6Z" fill="#F0F0F0"/>
<path d="M16.7525 6L10 17.204L16.7525 21.1955V14.1349V6Z" fill="white"/>
<path d="M16.7521 22.4739L16.6689 22.5753V27.7572L16.7521 27.9999L23.5086 18.4846L16.7521 22.4739Z" fill="#F0F0F0"/>
<path d="M16.7525 28.0001V22.474L10 18.4846L16.7525 28.0001Z" fill="white"/>
<path d="M16.752 21.1955L23.5044 17.2041L16.752 14.1349V21.1955Z" fill="#CCCCCC"/>
<path d="M10 17.204L16.7524 21.1954V14.1349L10 17.204Z" fill="#EEEEEE"/>
</svg>
